img/bru-shop/but-btn.svg

<svg width="52" height="52" viewBox="0 0 52 52" fill="none" xmlns="http://www.w3.org/2000/svg">
<circle cx="26" cy="26" r="25" stroke="#25394E" stroke-width="2"/>
<path d="M13.2933 14.6372C12.189 14.6036 12.0039 16.2034 13.0866 16.423L15.0813 16.8599C16.1364 21.9075 17.2866 26.9345 18.4019 31.9694C18.4936 32.3823 18.8599 32.676 19.2827 32.6759H35.1224C36.3427 32.6939 36.3427 30.854 35.1224 30.8719H20.0067L19.6075 29.0685H35.9215C36.3444 29.0686 36.7106 28.7749 36.8023 28.362L38.8 19.3433C38.9245 18.7803 38.4962 18.2467 37.9197 18.2463C31.0186 18.2465 24.1174 18.2462 17.2164 18.2429L16.7261 15.9167C16.653 15.5695 16.3832 15.2974 16.0367 15.2214L13.4719 14.66C13.4132 14.6465 13.3535 14.6386 13.2933 14.6372L13.2933 14.6372ZM23.0372 33.2779C21.7196 33.2779 20.6321 34.3655 20.6321 35.6832C20.6321 37.0009 21.7196 38.0885 23.0372 38.0885C24.3549 38.0885 25.4424 37.0009 25.4424 35.6832C25.4424 34.3655 24.3549 33.2779 23.0372 33.2779ZM31.4552 33.2779C30.1376 33.2779 29.0501 34.3655 29.0501 35.6832C29.0501 37.0009 30.1376 38.0885 31.4552 38.0885C32.7729 38.0885 33.8604 37.0009 33.8604 35.6832C33.8604 34.3655 32.7729 33.2779 31.4552 33.2779Z" fill="#25394E"/>
</svg>

<svg width="52" height="52" fill="none" xmlns="http://www.w3.org/2000/svg"><circle cx="26" cy="26" r="25" stroke="#25394E" stroke-width="2"/><path d="M13.293 14.637c-1.104-.033-1.29 1.566-.206 1.786l1.994.437c1.055 5.047 2.206 10.075 3.32 15.11a.902.902 0 00.882.706h15.84c1.22.018 1.22-1.822 0-1.804H20.006l-.4-1.803h16.315a.902.902 0 00.88-.707l1.998-9.019a.902.902 0 00-.88-1.097c-6.901 0-13.803 0-20.704-.003l-.49-2.326a.902.902 0 00-.69-.696l-2.564-.561a.889.889 0 00-.179-.023zm9.744 18.64a2.419 2.419 0 00-2.405 2.406 2.419 2.419 0 002.405 2.406 2.42 2.42 0 002.405-2.406 2.42 2.42 0 00-2.405-2.405zm8.418 0a2.419 2.419 0 00-2.405 2.406 2.419 2.419 0 002.405 2.406 2.42 2.42 0 002.405-2.406 2.42 2.42 0 00-2.405-2.405z" fill="#25394E"/></svg>
